flaticon/files-and-folders/clipboard-46.svg

<svg xmlns="http://www.w3.org/2000/svg" width="32" height="32" viewBox="0 0 24 24">
    <path d="M 18.398438 2.800781 L 16.398438 2.800781 L 16.398438 2.398438 C 16.398438 1.960938 16.039062 1.601562 15.601562 1.601562 L 14.398438 1.601562 L 14.398438 1.199219 C 14.398438 0.519531 13.878906 0 13.199219 0 L 10.800781 0 C 10.121094 0 9.601562 0.558594 9.601562 1.199219 L 9.601562 1.601562 L 8.398438 1.601562 C 7.960938 1.601562 7.601562 1.960938 7.601562 2.398438 L 7.601562 2.800781 L 5.601562 2.800781 C 4.480469 2.800781 3.601562 3.679688 3.601562 4.800781 L 3.601562 22 C 3.601562 23.121094 4.480469 24 5.601562 24 L 18.398438 24 C 19.519531 24 20.398438 23.121094 20.398438 22 L 20.398438 4.800781 C 20.398438 3.679688 19.519531 2.800781 18.398438 2.800781 Z M 8.398438 2.398438 L 10 2.398438 C 10.238281 2.398438 10.398438 2.238281 10.398438 2 L 10.398438 1.199219 C 10.398438 0.960938 10.558594 0.800781 10.800781 0.800781 L 13.199219 0.800781 C 13.441406 0.800781 13.601562 1 13.601562 1.199219 L 13.601562 2 C 13.601562 2.238281 13.761719 2.398438 14 2.398438 L 15.601562 2.398438 L 15.601562 5.199219 L 8.398438 5.199219 Z M 19.601562 22 C 19.601562 22.679688 19.078125 23.199219 18.398438 23.199219 L 5.601562 23.199219 C 4.921875 23.199219 4.398438 22.679688 4.398438 22 L 4.398438 4.800781 C 4.398438 4.121094 4.921875 3.601562 5.601562 3.601562 L 7.601562 3.601562 L 7.601562 5.199219 C 7.601562 5.640625 7.960938 6 8.398438 6 L 15.601562 6 C 16.039062 6 16.398438 5.640625 16.398438 5.199219 L 16.398438 3.601562 L 18.398438 3.601562 C 19.078125 3.601562 19.601562 4.121094 19.601562 4.800781 Z M 19.601562 22"/>
    <path d="M 15.761719 10.800781 C 15.753906 10.792969 15.75 10.789062 15.742188 10.785156 C 14.796875 9.808594 13.472656 9.199219 12 9.199219 C 9.121094 9.199219 6.800781 11.519531 6.800781 14.398438 C 6.800781 15.871094 7.40625 17.199219 8.382812 18.144531 C 8.390625 18.148438 8.394531 18.15625 8.398438 18.160156 C 8.414062 18.175781 8.429688 18.1875 8.441406 18.199219 C 9.371094 19.066406 10.621094 19.601562 12 19.601562 C 14.878906 19.601562 17.199219 17.28125 17.199219 14.398438 C 17.199219 13.019531 16.664062 11.765625 15.792969 10.835938 C 15.78125 10.824219 15.769531 10.8125 15.761719 10.800781 Z M 12 10 C 13.117188 10 14.132812 10.410156 14.910156 11.089844 L 8.691406 17.308594 C 8.011719 16.535156 7.601562 15.519531 7.601562 14.398438 C 7.601562 11.960938 9.558594 10 12 10 Z M 12 18.800781 C 10.964844 18.800781 10.015625 18.445312 9.265625 17.855469 L 15.453125 11.667969 C 16.046875 12.414062 16.398438 13.363281 16.398438 14.398438 C 16.398438 16.839844 14.441406 18.800781 12 18.800781 Z M 12 18.800781"/>
</svg>

<svg xmlns="http://www.w3.org/2000/svg" width="32" height="32" viewBox="0 0 24 24">
    <path d="M18.398 2.8h-2v-.402a.8.8 0 0 0-.796-.796h-1.204v-.403C14.398.52 13.878 0 13.2 0h-2.398c-.68 0-1.2.559-1.2 1.2v.402H8.399a.8.8 0 0 0-.796.796v.403h-2c-1.122 0-2 .879-2 2V22c0 1.121.878 2 2 2h12.796c1.122 0 2-.879 2-2V4.8c0-1.12-.878-2-2-2zm-10-.402H10c.238 0 .398-.16.398-.398v-.8c0-.24.16-.4.403-.4h2.398a.4.4 0 0 1 .403.4V2c0 .238.16.398.398.398h1.602V5.2H8.398zM19.602 22c0 .68-.524 1.2-1.204 1.2H5.602A1.18 1.18 0 0 1 4.398 22V4.8c0-.679.524-1.198 1.204-1.198h2v1.597c0 .442.359.801.796.801h7.204c.437 0 .796-.36.796-.8V3.601h2c.68 0 1.204.52 1.204 1.199zm0 0"/>
    <path d="M15.762 10.8l-.02-.015A5.189 5.189 0 0 0 12 9.2a5.19 5.19 0 0 0-5.2 5.2c0 1.472.606 2.8 1.583 3.746.008.003.012.011.015.015.016.016.032.027.043.04A5.2 5.2 0 0 0 12 19.601a5.19 5.19 0 0 0 5.2-5.204 5.195 5.195 0 0 0-1.407-3.562c-.012-.012-.023-.024-.031-.035zM12 10a4.4 4.4 0 0 1 2.91 1.09l-6.219 6.219a4.385 4.385 0 0 1-1.09-2.91A4.385 4.385 0 0 1 12 10zm0 8.8a4.409 4.409 0 0 1-2.734-.945l6.187-6.187c.594.746.945 1.695.945 2.73A4.386 4.386 0 0 1 12 18.801zm0 0"/>
</svg>
